src/22/mimetypes/application-x-kexi-connectiondata.svg

<svg width="22" xmlns="http://www.w3.org/2000/svg" height="22"><path d="M11 3a8 3 0 0 0-8 3v5a8 3 0 0 0 7 2.973V16H7v-1H3v4h4v-1h8v1h4v-4h-4v1h-3v-2.027A8 3 0 0 0 19 11V6a8 3 0 0 0-8-3zm0 1a7 2 0 0 1 7 2 7 2 0 0 1-7 2 7 2 0 0 1-7-2 7 2 0 0 1 7-2zm7 3.445V11a7 2 0 0 1-7 2 7 2 0 0 1-7-2V7.451A8 3 0 0 0 11 9a8 3 0 0 0 7-1.555zM4 16h2v2H4v-2zm12 0h2v2h-2v-2z" fill="#8e44ad"/></svg>

<?xml version="1.0" encoding="UTF-8" standalone="no"?>

<!-- Created with Inkscape (http://www.inkscape.org/) -->
<svg width="22" version="1.1" xmlns="http://www.w3.org/2000/svg" height="22" xmlns:inkscape="http://www.inkscape.org/namespaces/inkscape">
 <defs id="defs3871"/>
 <metadata id="metadata3874"/>
 <g inkscape:label="Capa 1" inkscape:groupmode="layer" id="layer1" transform="matrix(1 0 0 1 -326 -534.3622)">
  <rect width="0" x="273.38181" y="518.47876" height="14.668059" style="fill:#8e44ad" id="rect4035"/>
  <rect width="0" x="280.34238" y="541.04938" height="14.668059" style="fill:#8e44ad" id="rect4035-8"/>
  <rect width="0" x="282.15567" y="539.98865" height="14.668059" style="fill:#8e44ad" id="rect4035-0"/>
  <g inkscape:label="Capa 1" id="layer1-23">
   <rect width="0" x="273.38181" y="518.47876" height="14.668059" style="fill:#04896a" id="rect4035-3"/>
   <rect width="0" x="280.34238" y="541.04938" height="14.668059" style="fill:#16907d" id="rect4035-8-9"/>
   <rect width="0" x="282.15567" y="539.98865" height="14.668059" style="fill:#6c7a89" id="rect4035-0-4"/>
   <path style="fill:#8e44ad;stroke-width:2" id="path4146" d="M 11 3 A 8 3.0000005 0 0 0 3 6 L 3 10 L 3 11 A 8 3.0000005 0 0 0 10 13.972656 L 10 16 L 7 16 L 7 15 L 3 15 L 3 19 L 7 19 L 7 18 L 15 18 L 15 19 L 19 19 L 19 15 L 15 15 L 15 16 L 12 16 L 12 13.972656 A 8 3.0000005 0 0 0 19 11 L 19 10 L 19 6 A 8 3.0000005 0 0 0 11 3 z M 11 4 A 7 2 0 0 1 18 6 A 7 2 0 0 1 11 8 A 7 2 0 0 1 4 6 A 7 2 0 0 1 11 4 z M 18 7.4453125 L 18 10 L 18 11 A 7 2 0 0 1 11 13 A 7 2 0 0 1 4 11 L 4 10 L 4 7.4511719 A 8 3.0000005 0 0 0 11 9 A 8 3.0000005 0 0 0 18 7.4453125 z M 4 16 L 6 16 L 6 18 L 4 18 L 4 16 z M 16 16 L 18 16 L 18 18 L 16 18 L 16 16 z " transform="matrix(1 0 0 1 326 534.3622)"/>
  </g>
 </g>
</svg>
